!!!SOCIAL_FUNCTION:	songs of war
!!!PDT:	1913
!!!OTL: No_12_Return_of_the_War_Messenger.krn
!!!REG: Great_Lakes
!!!LANG: Non-Tone
!!!LING_GROUP: Algonquin
**kern	**kern
*staff2	*staff1
*clefF4	*clefG2
*k[b-e-a-d-g-]	*k[b-e-a-d-g-]
*M2/4	*M2/4
4r	4f/
=1||	=1||
*M3/4	*M3/4
12GG-^/L	2f/
12GG-/J	.
12r	.
12GG-^/L	.
12GG-/J	.
12r	.
12GG-^/L	4f/
12GG-/J	.
12r	.
=2	=2
2.r	4e-/
.	4d-/
.	4B-/
=3||	=3||
*M2/4	*M2/4
2r	2d-/
=4||	=4||
*M3/4	*M3/4
2.r	2d-/
.	4f/
=5	=5
2.r	2f/
.	4f/
=6	=6
2.r	4e-/
.	4d-/
.	4B-/
=7||	=7||
*M2/4	*M2/4
2r	2d-/
=8||	=8||
*M3/4	*M3/4
2.r	2.d-/
=9	=9
2.r	4d-/
.	4d-/
.	4d-/
=10||	=10||
*M2/4	*M2/4
2r	4d-/
.	8d-/L
.	8d-/J
=11	=11
2r	4d-/
.	4f/
=12	=12
2r	8.d-/L
.	16B-/Jk
.	4B-/
*	*clefF4
=13||	=13||
2r	8.d-\L
.	16F\Jk
.	4F\
=14||	=14||
*M3/4	*M3/4
2.r	[2F\
.	8.F\L]
.	16E-\Jk
=15||	=15||
*M2/4	*M2/4
2r	2E-\
=16	=16
2r	4D-\
.	4D-\
=17	=17
2r	2D-\
=18||	=18||
*M3/4	*M3/4
2.r	2F\
.	4F\
=19	=19
2.r	4E-\
.	4D-\
.	4BB-/
=20||	=20||
*M2/4	*M2/4
2r	2D-\
=21||	=21||
*M3/4	*M3/4
2.r	2.BB-/
==	==
*-	*-
